X: 38173
T: Spot, The
R: hornpipe
M: 4/4
K: Cmajor
(3GAB|c>Bc>d e2 d>c|B>cd>e f2 e>d|c>Be>d f>ed>c|B<d G2 d<B g2|
c>Bc>d e2 d>c|B>cd>e f2 e>d|e>ge>c d>fd>B|c>Ge>d c2:|

